!! 00026] ST[00
!! Eigene Aufnahme
!!!OTL: Taiyang chulai xiyangyang
!!!ARE: Asia, China, Sichuan, Ostteil
!! Ethnic Group: Han
!!!YOR: II, 242
!!!SCT: C0260
!!!YEM: Copyright 1995, estate of Helmut Schaffrath.
**kern
*ICvox
*Ivox
*M2/4
*k[f#c#]
*D:
{8ee
8ff#
8ee
8dd
=1
4ee
8ff#
8r}
=2
{8dd
8ee
8ff#
[8ee
=3
8ee]
8dd
8b
8r}
=4
{8a
8b
8dd
8b
=5
8ee
8ee
4b
=6
4a
8b
8r}
=7
{8dd
8b
8ee
[8dd
=8
8dd]
8b
[4ee
=9
2ee]}
==
!!!AGN: Shange, Luoer diao
!! Die Gattungsbzeichnung gilt den Fuellwoertern, die den Klang des Gongs
!!    "Luo" imitieren.  Die Saengerin Lei Huilan ist Angehoerige der Zhuang
!!    Minderheit und studiert an der Guangzhouer Musikhochschule.
!!    aufgenommen am 5.5.87 +++ Komischer Grundton? +++
!!    +++ AUCH AUF KASSETTE 1 = 46 CUT 2 (A-Seite) +++ MEHRMALS ! +++
!!    Grundton liegt in der zweigestrichenen Oktave; Verzierung
!!    Als Tonbeispiel vorhanden; Signatur: 00151, Cut Nr.: 17
!!    Nach chinesischer Auffassung ist dies ein Zweizeiler (A-B).
!!!ONB: ESAC (Essen Associative Code) Database: CHINA_0
!!!AMT: simple duple
!!!AIN: vox
!!!EED: Helmut Schaffrath
!!!EEV: 1.0
*-
